packages/symbols/svgs/duotone/news-duotone.svg

<svg width="24" height="24" viewBox="0 0 24 24" fill="none" xmlns="http://www.w3.org/2000/svg">
<path fill-rule="evenodd" clip-rule="evenodd" d="M8 14C8 13.4477 8.44772 13 9 13H19C19.5523 13 20 13.4477 20 14C20 14.5523 19.5523 15 19 15H9C8.44772 15 8 14.5523 8 14Z" fill="black"/>
<path fill-rule="evenodd" clip-rule="evenodd" d="M8 18C8 17.4477 8.44772 17 9 17H19C19.5523 17 20 17.4477 20 18C20 18.5523 19.5523 19 19 19H9C8.44772 19 8 18.5523 8 18Z" fill="black"/>
<path fill-rule="evenodd" clip-rule="evenodd" d="M8 6C8 5.44772 8.44772 5 9 5H19C19.5523 5 20 5.44772 20 6V10C20 10.5523 19.5523 11 19 11H9C8.44772 11 8 10.5523 8 10V6ZM10 7V9H18V7H10Z" fill="black"/>
<path opacity="0.5" fill-rule="evenodd" clip-rule="evenodd" d="M5 0C4.44772 0 4 0.447715 4 1V20.9982C3.99888 21.2636 3.89299 21.5177 3.70536 21.7054C3.51814 21.8926 3.26469 21.9984 3 22C2.73531 21.9984 2.48186 21.8926 2.29464 21.7054C2.10701 21.5177 2.00112 21.2636 2 20.9983V14C2.55228 14 3 13.5523 3 13C3 12.4477 2.55228 12 2 12H1C0.447715 12 0 12.4477 0 13L0 21L4.47035e-06 21.003C0.0023762 21.7971 0.318893 22.558 0.880428 23.1196C1.44196 23.6811 2.20289 23.9976 2.99701 24C2.99844 24 2.99986 24 3.00129 24M3.00129 24H21L21.003 24C21.7971 23.9976 22.558 23.6811 23.1196 23.1196C23.6811 22.558 23.9976 21.7971 24 21.003L24 21V1C24 0.447715 23.5523 0 23 0L5 0M6 21V2H22V20.9981C21.9989 21.2635 21.893 21.5177 21.7054 21.7054C21.5177 21.893 21.2635 21.9989 20.9981 22H5.82668C5.93934 21.6828 5.99897 21.346 6 21.003L6 21Z" fill="black"/>
</svg>

<svg width="24" height="24" viewBox="0 0 24 24" xmlns="http://www.w3.org/2000/svg"><path fill-rule="evenodd" clip-rule="evenodd" d="M8 14a1 1 0 0 1 1-1h10a1 1 0 1 1 0 2H9a1 1 0 0 1-1-1Zm0 4a1 1 0 0 1 1-1h10a1 1 0 1 1 0 2H9a1 1 0 0 1-1-1ZM8 6a1 1 0 0 1 1-1h10a1 1 0 0 1 1 1v4a1 1 0 0 1-1 1H9a1 1 0 0 1-1-1V6Zm2 1v2h8V7h-8Z"/><path opacity=".5" fill-rule="evenodd" clip-rule="evenodd" d="M5 0a1 1 0 0 0-1 1v19.998A1.006 1.006 0 0 1 3 22a1.006 1.006 0 0 1-1-1.002V14a1 1 0 1 0 0-2H1a1 1 0 0 0-1 1v8.003A3.006 3.006 0 0 0 2.997 24h.004m0 0h18.002A3.006 3.006 0 0 0 24 21.003V1a1 1 0 0 0-1-1H5m1 21V2h16v18.998A1.006 1.006 0 0 1 20.998 22H5.827A3.02 3.02 0 0 0 6 21.003V21Z"/></svg>
